X: 26
M: C|
L: 1/8
K: Bb
(3FGA |\
|: (3dcB |\
=e>fg>a b>ge>g | f>=ef>g f2f>_e |
d>ed>c B>dg2 | c>dc>B A>cf2 |\
g>ba>g f>ed>c | B2d2 B2 H:|

